svg/flash_off.svg

<svg xmlns="http://www.w3.org/2000/svg" viewBox="0 0 24 24"><path d="M17 10h-4l4-8H7v2.18l8.46 8.46M3.27 3 2 4.27l5 5V13h3v9l3.58-6.14L17.73 20 19 18.73z"/></svg>

<?xml version="1.0" encoding="UTF-8"?><!DOCTYPE svg PUBLIC "-//W3C//DTD SVG 1.1//EN" "http://www.w3.org/Graphics/SVG/1.1/DTD/svg11.dtd"><svg xmlns="http://www.w3.org/2000/svg" xmlns:xlink="http://www.w3.org/1999/xlink" version="1.1" id="mdi-flash-off" width="24" height="24" viewBox="0 0 24 24"><path d="M17,10H13L17,2H7V4.18L15.46,12.64M3.27,3L2,4.27L7,9.27V13H10V22L13.58,15.86L17.73,20L19,18.73L3.27,3Z" /></svg>
